!!!ONB: MCCC : IJH0418_01 : Extracted Monophonic Melody
!!!COM: Haydn, Joseph
!!!OPR: String Quartet in C major
!!!OMV: 1
!!!SCT: Hob.III:39 ; Op.33 No.3
!!!ODT: 1781///
**kern
*thru
*k[]
*C:
*clefF
*M4/4
=1
1gg
=2
2gg
2gg
=3
2gg[
8gg]
16ee
16gg
8ff
16dd
16b
=4
16b
16cc
16ee
16cc
4.g
16e
16g
8f
16d
16B
=5
16B
16c
16e
16c
8G
2r
8r
=6
1r
=7
1aa
=8
2aa
2aa
=9
2aa[
8aa]
16ff
16aa
8gg
16ee
16cc#
=10
16cc#
16dd
16ff
16dd
4.a
16f
16a
8g
16e
16c#
=11
16c#
16d
16f
16d
8A
2r
8r
=12
1r
=13
2gg[
8gg]
16aa
16bb-
16aa
16gg
16ff
16ee
=14
2dd
4cc#
4dd
=15
2cc
4b
4cc
=16
4.dd
16ff
16aa
4cc
4b
=17
1cc[
=18
4.cc]
16dd
16cc
8b
8cc
8cc#
8dd
=19
1dd[
=20
4.dd]
16ee
16dd
8cc
8b
8cc
8dd
=21
2ee[
8ee]
8ee
8ff
8gg
=22
1aa
=23
2gg[
8gg]
16aa
16bb
8ccc
8bb
=24
8bb
8aa
8aa
8gg
8gg
8ff
8ff
8ee
=25
4.gg
16ff
16ee
4dd
4r
=26
1r
=27
16ccc#
16ddd
16bb
16gg
8dd
8r
16bb
16ccc
16aa
16ff#
8dd
8r
=28
16ff#
16gg
16bb
16gg
8dd
8r
16gg
16ff#
16aa
16ff#
8dd
8r
=29
8r
8dd
8ccc#
8ddd
8r
8dd
8bb
8ccc
=30
8r
8dd
8aa
8bb-
8r
8dd
8gg#
8aa
=31
16ff#
16gg
16bb-
16gg
8dd
8r
4ddd
4ddd
=32
16gg
16ff#
16aa
16ff#
8dd
8r
4ccc
4ccc
=33
16f#
16g
16b-
16g
8d
8r
4dd
4dd
=34
16g
16f#
16a
16f#
8d
8r
4cc
4cc
=35
2gg
4gg
4gg
=36
4.ccc
8bb
8aa
8r
16ff#
16gg
16aa
16gg
=37
4.ccc
8bb
8aa
8r
16ff#
16gg
16aa
16gg
=38
16ff#
16gg
16aa
16gg
16ff#
16gg
16aa
16gg
16ff#
16gg
16aa
16gg
16ff#
16gg
16aa
16gg
=39
4.eee
8ddd
4ccc
4bb
=40
4.aa
8gg#
8gg
8ff#
8ee
8dd
=41
4gg
8r
8f#
8g
8a
8b
8cc
=42
2dd
4dd
4dd
=43
8dd
8cc
8cc
8b
8b
4.r
=44
8cc
8b
8b
8a
4a
4r
=45
4g
4g
4a
4a
=46
4f#
4f#
8g
8a
8b
8cc
=47
2dd
4dd
4dd
=48
8dd
8cc
8cc
8b
4b
4r
=49
8cc
8b
8b
8a
4a
4r
=50
4gg
4gg
4aa
4aa
=51
4ff#
4ff#
4gg
4gg
=52
4aa
4aa
4bb
8bb
8ddd
=53
8ddd
8ccc#
8ccc
8bb
2bb
=54
4.aa
8gg#
8gg
8ff#
8ee
8dd
=55
1gg
=56
1gg
=57
1gg[
=58
4gg]
2.r
=59
1r
=60
1ccc
=61
2ccc
2ccc
=62
2ccc[
8ccc]
16aa
16ccc
8bb-
16gg
16ee
=63
16gg
16ff
16aa
16ff
4.cc
16a
16cc
8b-
16g
16e
=64
16e
16f
16a
16f
4c
2r
=65
2ff
4ff
4ff
=66
2aa
2bb-
=67
2ff#
4gg
4gg
=68
2ccc
2bb-
=69
2bb-
2aa
=70
2gg#
4aa
4aa
=71
2dd
4cc
4cc
=72
4.b
8e
8a
8b
8cc
8dd
=73
2ee
4ee
4ee
=74
8ee
8dd
8dd
8cc
4cc
4r
=75
8dd
8cc
8cc
8b
4b
4r
=76
2b
4b
4b
=77
4b
4cc
4dd
4r
=78
4dd
4ee
4ff
4r
=79
16gg#
16aa
16ccc
16aa
8ff
8ff
16cc#
16dd
16ff
16dd
8b
8b
=80
16a
16g#
16b
16g#
2f
8e
8d
=81
4c
4.a
8g#
8g
8f
=82
2f
2r
=83
16gg#
16aa
16ccc
16aa
8ff
8ff
16cc#
16dd
16ff
16dd
8b
8b
=84
1g
=85
1g
=86
1g[
=87
2g]
4g
4g
=88
1g
=89
1f[
=90
2f]
4e-
4cc
=91
2cc
2b
=92
2ee
4ee
4ee
=93
2ee
2dd
=94
2ccc
4ccc
4ccc
=95
1ccc
=96
1bb
=97
1r
=98
8r
8b
8bb
8gg
8r
8b
8aa
8ff#
=99
8r
8b
8gg
8ee
8r
8b
8ff#
8dd#
=100
8r
8b
8aa#
8bb
8r
8b
8gg#
8aa
=101
8r
8b
8ff#
8gg
8r
8b
8ee#
8ff#
=102
4.ccc
8bb
8aa
8r
16ff#
16gg
16aa
16gg
=103
4.ccc
8bb
8aa
8r
16ff#
16gg
16aa
16gg
=104
16ff#
16gg
16aa
16gg
16ff#
16gg
16aa
16gg
16ff#
16gg
16aa
16gg
16ff#
16gg
16aa
16gg
=105
4.ccc
8bb
8aa
8r
4gg[
=106
4gg]
4.bb
8aa
8gg
8ff#
=107
4ee
2.r
=108
1gg
=109
2gg
2gg
=110
2gg[
8gg]
16ee
16gg
8ff
16dd
16b
=111
16b
16cc
16ee
16cc
4.g
16e
16g
8f
16d
16B
=112
16B
16c
16e
16c
8G
2r
8r
=113
1r
=114
1aa
=115
2aa
2aa
=116
2aa[
8aa]
16ff
16aa
8gg
16ee
16cc#
=117
16cc#
16dd
16ff
16dd
4.a
16f
16a
8g
16e
16c#
=118
16c#
16d
16f
16d
8A
2r
8r
=119
1r
=120
2gg[
8gg]
16aa
16bb-
16aa
16gg
16ff
16ee
=121
2dd
4cc#
4dd
=122
2cc
4b
4cc
=123
4.dd
8ee
4ff
8ee
8cc
=124
1gg
=125
1gg[
=126
2gg]
8gg
8gg
8bb
8ddd
=127
8r
8gg
8ccc
8eee
8r
8gg
8ddd
8fff
=128
16fff
16eee
16ggg
16eee
8ccc
2r
8r
=129
16eee
16ddd
16fff
16ddd
8gg
2r
8r
=130
16fff
16eee
16ggg
16eee
8ccc
2r
8r
=131
16eee
16ddd
16fff
16ddd
8gg
2r
8r
=132
16bb
16ccc
16eee
16ccc
8gg
8r
16ff
16ee
16gg
16ee
8cc
8r
=133
16gg#
16aa
16ccc
16aa
8ff
8r
16ee
16ff
16aa
16ff
8dd
8r
=134
2.r
8aa
8gg
=135
8gg
8ff
8ff
8ee
8ee
8dd
8ff
8ee
=136
8ee
8dd
8dd
8cc#
8cc
8b
8a
8g
=137
4cc
8r
8g
8cc
8dd
8ee
8ff
=138
2gg
4gg
4gg
=139
8gg
8ff
8ff
8ee
4ee
4r
=140
8ff
8ee
8ee
8dd
4dd
4r
=141
4cc
4cc
4dd
4dd
=142
4b
4b
8cc
8dd
8ee
8ff
=143
2gg
4gg
4gg
=144
8gg
8ff
8ff
8ee
4ee
4r
=145
8ff
8ee
8ee
8dd
4dd
4r
=146
4cc
2cc
4dd[
=147
4dd]
2ee
4ff
=148
2ff
8ee
8dd
8dd
8cc
=149
4.dd
8cc#
8cc
8b
8a
8g
=150
1cc
=151
1cc
=152
1cc[
=153
4cc]
2.r
=154
1cc[
=155
1cc]
=156
2cc
8cc#
8dd
8dd
8ee
=157
4gg
4gg
4ff#
4ff#
=158
4ff
4ff
4ee
4ee
=159
4.aa
8gg#
8gg
8ff#
8ff
8ee
=160
8ee-
8dd
8cc#
8dd
8a
8aa
8ff
8dd
=161
4cc
4ee
4gg
4ccc
=162
4eee
4r
4ggg
4r
=163
1dd
=164
2cc
2r
=165
1r
=166
1gg
=167
2gg
2gg
=168
2gg[
8gg]
16ee
16gg
8ff
16dd
16b
=169
16b
16cc
16ee
16cc
4.g
16e
16g
8f
16d
16B
=170
4c
2.r
==
*-
